X:1
T:Andantino
T:Andantino
T:En la mayor
T:Francisco Tárrega (1852 - 1909)
C:Francisco Tárrega
%%score ( 1 2 )
L:1/8
Q:1/4=96
M:3/4
K:A
V:1 treble-8 nm="Classical Guitar" snm="Guit."
V:2 treble-8 
V:1
"^IX"xa c'e' c'a | z2 [ge']2 [gd']2 |xg d'e' d'g | z2 [ae']2 [ac']2 |xa c'e' c'a | z2 [df]2 [df]2 | %6
x"^IV"e gb ge | z2 [ca]2 [ca]2 :|[K:D]xd fd gd |xf af d'b |xa c'a bg |xf a4 |xd fd gd |xf af d'b | %14
xa c'[gb] [ac'][c'e'] | z2 [fd']2 [fd']2 |] %16
V:2
 A,6 | E,6 | E,6 | A,6 | A,6 | D6 | E,6 | A,4 A,2 :|[K:D] D6 | D6 | A,6 | D3 A, B,C | D6 | D6 | %14
 A,6 | D4 D2 |] %16

